!!!Genre:	Alter yidisher tants
!!!Mode:	Minor
!!!Listening/dance:	dance
!!!One_Mode:	yes
**kern
*thru
*I"P1
*clefG2
*k[b-e-]
*g:
*M2/4
*>A
=1
8gL
8d
8b-
8dJ
=2
8ccL
16b-L
16aJJ
4g
=3
8ccL
8ccJ
16ccLL
16dd
16ee-
16ccJJ
=4
4.dd
8een
=5!|:
8.ffL
16eenJk
8ffL
8ggJ
=6
8ffL
8ee-X
8dd
8ccJ
=7
8ggL
8cc
8b-
8aJ
*>A1
=8
4.g
8een
*>A2
=9:|!
4g
4r
=10||
*>B
(16ddLL
16ee-J
8ddJ)
(16ccLL
16ddJ
8ccJ)
=11
8b-L
8ccJ
4dd
=12
(16ddLL
16ee-J
8ddJ)
(16ccLL
16ddJ
8ccJ)
=13
8b-L
8ccJ
4dd
=14!|:
4gg
8ddL
16ccL
16b-JJ
=15
8cc
4b-
8cc
=16
4dd
16b-LL
16aJ
8gJ
*>B1
=17
8b-
4g
8g
*>B2
=18:|!
8b-L
8gJ
4r
=19||
*>C
8ddL
8gg
8gg
8ggJ
=20
8ggL
8dd
8ff
8ee-J
=21
8ddL
8gg
8gg
8ggJ
=22
8ggL
8dd
8ff
8ee-J
=23
4.dd
8een
=24
8.ffL
16eenJk
8ffL
8ggJ
=25
8ffL
8ee-
8dd
8ccJ
=26
8ggL
8cc
8b-
8aJ
=27
4.g
8een
=28
16ffLL
16een
16ff
16eeJJ
8ffL
8ggJ
=29
8ffL
8ee-X
8dd
8ccJ
=30
8ggL
8cc
8b-
8aJ
=31
2g
==
*-
